X:16
T: Inisheer / Inis O\'irr  (Thomas Walsh \2511970) %%X:4 WJ 2012
M: 3/4
L: 1/8
K: G
% %%vskip .4cm
                                                        D2 |\
"G"B2 BA B<d |B2 BA B<d |"C"E3 B      AB  |"Dsus4"A2 AB AG |\
"G"B2 BA B<d |B2 BA B<d |"C"E3 B "D"(3AGF |    "G"G4    D2 |
"G"B2 BA B<d |B2 BA B<d |"C"E3 B      AB  |    "D"A2 AB AG |\
"G"B2 BA B<d |B2 BA B<d |"C"E3 B "D"(3AGF |    "G"G2 GA Bd ||
     "C"e2 ef ed  |"Bm7"B3    A  Bd  |"Em"gf ed "(D)"(3Bcd |"C"e3  A Bd  |\
   "Am7"e2 ed e<g |  "G"B2   BA  B<d | "C"G3  B "(D)"(3AGF |"G"G2 GA Bd  |
"C(Am7)"e2 ef ed  |  "G"B3    A  Bd  |"Em"gf ed "(D)"(3Bcd |"C"e4  (3Bcd |\
     "C"e2 ed e<g |  "G"B2 (3BcB AB  | "C"G3  B   "D"(3AGF |"G"G4        |]
% %%stretchlast

